X: 21
M: 3/4
L: 1/8
K: D
uA2 |\
vf4d2 | A2(uB2A2) | (vG4.G2) | (uc4B2) |\
(vA4.c2) | (ue4.A2) | f6 | (uf4A2) |
f4d2 | A2(B2A2) | (G4.G2) | (c4B2) |\
|: (uef) |\
(g2B2g2) | (g2B2g2) | (f2A2f2) | (f2A2f2) |\
f2d2f2 | a2g2f2 | e6 | e2d2e2 |
f4d2 | A2(B2A2) | (G4.G2) | (c4B2) |\
century whan day cam into Shetland frae da Sooth.  Dey spread
very quickly an are still popular today.  We dinna ken wha
composed dis een bit it cam frae da North Isles.


